X: 4
T: A Stor Mo Chroi
R: waltz
M: 3/4
L: 1/8
K: Bmin
(d3/2e/2)|f3/2f/2 f2e<f|(e>d) BA/F/ A2-|
A4B3/2d/2|e3/2f/2 (e>d B>A)|(F3/2E/2) (F<A) B2|
[1B4:|[2B4-B B]| BA/B/ de/f/ a3/2b/2|
B3B BA/B/| de/f/ (b4| b)a/f/ (a3 ^a)|
b2^g3a| b=ff3 e/f/|e>d BA/F/ A2-|
A2fe dB/A/|F3E FA|(B2B4)||


Tune 5737	Setting 5737

